packages/icons/src/emoji/svg/floppy-disk.svg

<svg width="120" height="120" viewBox="0 0 120 120" fill="none" xmlns="http://www.w3.org/2000/svg">
<path d="M92.2877 67.05C90.9283 71.1563 82.4627 97.95 81.8627 99.6188C81.1408 101.616 80.1283 103.463 78.4221 104.334C75.5346 105.806 70.9971 104.231 68.194 103.125C64.1908 101.55 60.1315 100.059 56.0908 98.5688C46.2846 94.9313 36.5158 91.1813 26.7283 87.4969C23.0252 86.1 18.5346 84.9657 15.3565 82.575C12.2627 80.2594 14.4283 75.7688 15.544 72.8438C16.4533 70.4532 17.4471 68.0907 18.4033 65.7188C20.5971 60.2625 22.8002 54.8157 24.994 49.3594C25.6596 47.7188 26.1846 45.8719 27.0377 44.3157C27.3283 43.7907 27.6846 43.4719 28.0783 43.2938C29.4096 42.7032 31.2283 43.6407 32.6252 44.0719C34.4533 44.6438 36.2815 45.2063 38.1096 45.7782C43.0127 47.3063 47.9158 48.825 52.819 50.3532C58.3221 52.0688 63.8252 53.775 69.3283 55.4907C74.1658 57 79.0033 58.5 83.8408 60.0094C85.5939 60.5532 87.3471 61.1063 89.1002 61.65C90.0096 61.9313 91.0033 62.1469 91.8752 62.5125C93.5908 63.2438 92.6814 65.85 92.2877 67.05Z" fill="white"/>
<path d="M116.062 27.9468C115.2 26.5124 114.216 24.0374 112.725 23.1562C109.903 21.4874 106.819 20.6531 103.706 19.7624C99.7687 18.6374 95.8312 17.5218 91.8844 16.4156C83.4562 14.0531 75 11.7468 66.5156 9.59993C58.05 7.46243 49.5469 5.91555 41.0062 4.2468C36.675 3.40305 33.2531 3.2718 30.7875 7.19055C27.8062 11.9249 26.0719 17.6531 24.0375 22.9874C21.8344 28.7624 19.4531 34.4906 17.1375 40.2187C14.1281 47.6718 11.1281 55.1343 8.11873 62.5874C6.80623 65.8312 5.44686 69.0562 4.20936 72.3281C2.69061 76.3312 -0.271893 82.4718 3.95623 85.6406C8.31561 88.9124 14.4469 90.4593 19.5094 92.3718C32.8875 97.4156 46.2562 102.534 59.6625 107.512C65.1844 109.566 70.7344 111.591 76.2094 113.747C80.0437 115.256 86.25 117.412 90.1969 115.397C92.5312 114.206 93.9094 111.675 94.8844 108.947C95.7187 106.659 107.306 70.0218 109.162 64.4062C111.037 58.7249 112.791 52.9874 114.581 47.2781C115.537 44.2218 116.325 41.0999 117.15 38.0062C117.384 37.1718 117.769 36.2249 118.012 35.3156C118.125 34.9218 118.2 34.5281 118.228 34.1624C118.387 31.9218 117.197 29.8218 116.062 27.9468ZM92.2875 67.0499C90.9281 71.1562 82.4625 97.9499 81.8625 99.6187C81.1406 101.616 80.1281 103.462 78.4219 104.334C75.5344 105.806 70.9969 104.231 68.1937 103.125C64.1906 101.55 60.1312 100.059 56.0906 98.5687C46.2844 94.9312 36.5156 91.1812 26.7281 87.4968C23.025 86.0999 18.5344 84.9656 15.3562 82.5749C12.2625 80.2593 14.4281 75.7687 15.5437 72.8437C16.4531 70.4531 17.4469 68.0906 18.4031 65.7187C20.5969 60.2624 22.8 54.8156 24.9937 49.3593C25.6594 47.7187 26.1844 45.8718 27.0375 44.3156C27.3281 43.7906 27.6844 43.4718 28.0781 43.2937C29.4094 42.7031 31.2281 43.6406 32.625 44.0718C34.4531 44.6437 36.2812 45.2062 38.1094 45.7781C43.0125 47.3062 47.9156 48.8249 52.8187 50.3531C58.3219 52.0687 63.825 53.7749 69.3281 55.4906C74.1656 56.9999 79.0031 58.4999 83.8406 60.0093C85.5937 60.5531 87.3469 61.1062 89.1 61.6499C90.0094 61.9312 91.0031 62.1468 91.875 62.5124C93.5906 63.2437 92.6812 65.8499 92.2875 67.0499Z" fill="#006CA2"/>
<path d="M96.6746 22.5282C96.3653 22.2188 95.9434 21.9844 95.4934 21.7969C86.8778 18.2344 77.7465 16.8094 68.9059 14.0532C66.1684 13.2 63.3746 12.4875 60.5434 12.0844C58.8746 11.85 54.8059 10.8094 53.3528 11.6625C51.6746 12.6469 51.1871 15.2438 50.4934 16.9407C48.6934 21.3657 47.1278 25.8 45.609 30.3188C44.8965 32.4282 43.9215 34.5 43.359 36.6469C42.9465 38.2219 43.6871 38.6157 44.9059 39.0282C45.0934 39.0938 45.2903 39.15 45.5059 39.225C47.7559 39.9563 49.9871 40.7063 52.2465 41.3907L52.4809 41.4563C56.3246 42.6938 60.9934 44.1844 64.4903 45.3094C64.6684 45.3657 64.8746 45.4313 65.0715 45.4875C72.2996 47.7657 84.3934 50.7563 84.3934 50.7563C85.3309 51.0188 86.3434 51.2063 87.1496 50.7C88.3871 49.9407 88.884 47.4938 89.3153 46.2563C90.8059 42 92.5496 37.8375 94.134 33.6188C94.7996 31.8469 95.2684 30 95.9246 28.2282C96.159 27.6094 96.5621 26.7938 96.8715 25.9407C97.3215 24.7032 97.5559 23.4 96.6746 22.5282ZM91.8465 25.9688C91.5278 27.225 91.059 28.4438 90.6278 29.6625C88.9121 34.4438 87.234 39.2438 85.3965 43.9782C85.2184 44.4282 85.1246 44.925 84.8903 45.3469C84.459 46.1063 84.1965 46.725 83.2309 46.8094C82.5371 46.8657 81.8246 46.6125 81.1778 46.4438C79.8278 46.0875 78.4778 45.7313 77.1465 45.3094C76.0684 44.9625 74.634 44.5032 73.4528 44.1188L73.3778 44.1C72.2528 43.7625 71.0246 43.5 70.9309 42.0938C70.8934 41.55 71.2403 40.9688 71.3996 40.4719C73.3496 34.7063 75.4028 28.9594 77.559 23.2688C77.6903 22.9219 77.8403 22.575 77.9903 22.2375C78.0746 22.05 78.159 21.8344 78.2903 21.6563C78.3184 21.6094 78.3371 21.5625 78.384 21.525C79.0403 20.925 80.2778 21.225 81.009 21.4032C82.134 21.675 83.2215 22.05 84.3371 22.2938C85.6403 22.575 86.934 22.9219 88.2184 23.2688L90.1403 23.8032C90.4778 23.8969 90.7965 23.9907 91.1246 24.0938C91.3121 24.1594 91.5371 24.1688 91.6965 24.2907L91.9215 24.5532C91.959 24.6282 91.9778 24.7125 91.9965 24.7969C92.0715 25.1625 91.9403 25.6125 91.8465 25.9688Z" fill="#78A3AD"/>
</svg>

<svg xmlns="http://www.w3.org/2000/svg" fill="none" aria-hidden="true" data-slot="icon" viewBox="0 0 120 120"><path fill="#fff" d="M92.288 67.05c-1.36 4.106-9.825 30.9-10.425 32.569-.722 1.997-1.735 3.844-3.44 4.715-2.888 1.472-7.426-.103-10.229-1.209-4.003-1.575-8.062-3.066-12.103-4.556-9.806-3.638-19.575-7.388-29.363-11.072-3.703-1.397-8.193-2.531-11.372-4.922-3.093-2.316-.928-6.806.188-9.731.91-2.39 1.903-4.753 2.86-7.125 2.193-5.456 4.396-10.903 6.59-16.36.666-1.64 1.19-3.487 2.044-5.043.29-.525.647-.844 1.04-1.022 1.332-.59 3.15.347 4.547.778 1.828.572 3.657 1.134 5.485 1.706 4.903 1.528 9.806 3.047 14.709 4.575 5.503 1.716 11.006 3.422 16.51 5.138C74.165 57 79.002 58.5 83.84 60.009c1.753.544 3.506 1.097 5.26 1.641.909.281 1.902.497 2.774.863 1.716.73.806 3.337.413 4.537"/><path fill="#006CA2" d="M116.062 27.947c-.862-1.435-1.846-3.91-3.337-4.79-2.822-1.67-5.906-2.504-9.019-3.395a2434 2434 0 0 0-11.822-3.346C83.456 14.053 75 11.746 66.516 9.6c-8.466-2.138-16.97-3.684-25.51-5.353-4.331-.844-7.753-.975-10.218 2.944-2.982 4.734-4.716 10.462-6.75 15.796-2.204 5.775-4.585 11.504-6.9 17.232-3.01 7.453-6.01 14.915-9.02 22.368-1.312 3.244-2.671 6.47-3.909 9.741-1.518 4.003-4.48 10.144-.253 13.313 4.36 3.271 10.49 4.818 15.553 6.73 13.379 5.045 26.747 10.163 40.154 15.141 5.521 2.054 11.071 4.079 16.546 6.235 3.835 1.509 10.041 3.665 13.988 1.65 2.334-1.191 3.712-3.722 4.687-6.45.835-2.288 12.422-38.925 14.278-44.54 1.875-5.682 3.629-11.42 5.419-17.129.956-3.056 1.744-6.178 2.569-9.272.234-.834.619-1.781.862-2.69a6 6 0 0 0 .216-1.154c.159-2.24-1.031-4.34-2.166-6.215M92.287 67.05c-1.359 4.106-9.824 30.9-10.425 32.569-.721 1.997-1.734 3.843-3.44 4.715-2.888 1.472-7.425-.103-10.228-1.209-4.003-1.575-8.063-3.066-12.103-4.556-9.807-3.638-19.575-7.388-29.363-11.072-3.703-1.397-8.194-2.531-11.372-4.922-3.094-2.316-.928-6.806.188-9.731.91-2.39 1.903-4.753 2.86-7.125 2.193-5.457 4.396-10.903 6.59-16.36.665-1.64 1.19-3.487 2.044-5.043.29-.525.646-.844 1.04-1.022 1.331-.59 3.15.347 4.547.778 1.828.572 3.656 1.134 5.484 1.706 4.904 1.528 9.807 3.047 14.71 4.575 5.503 1.716 11.006 3.422 16.51 5.138C74.165 57 79.002 58.5 83.84 60.009c1.753.544 3.506 1.097 5.259 1.64.91.282 1.903.498 2.775.863 1.716.732.806 3.338.412 4.538"/><path fill="#78A3AD" d="M96.675 22.528c-.31-.31-.732-.544-1.182-.731-8.615-3.563-17.746-4.988-26.587-7.744-2.738-.853-5.531-1.565-8.363-1.969-1.668-.234-5.737-1.275-7.19-.421-1.678.984-2.166 3.58-2.86 5.278-1.8 4.425-3.365 8.859-4.884 13.378-.712 2.11-1.687 4.181-2.25 6.328-.413 1.575.328 1.969 1.547 2.381.187.066.384.122.6.197 2.25.731 4.481 1.481 6.74 2.166l.235.065c3.844 1.238 8.512 2.728 12.01 3.853.177.057.384.122.58.178 7.229 2.279 19.322 5.27 19.322 5.27.938.262 1.95.45 2.757-.057 1.237-.76 1.734-3.206 2.165-4.444 1.49-4.256 3.235-8.419 4.819-12.637.666-1.772 1.134-3.619 1.79-5.39.235-.62.638-1.435.947-2.288.45-1.238.685-2.541-.196-3.413m-4.828 3.44c-.32 1.257-.788 2.476-1.22 3.695-1.715 4.78-3.393 9.58-5.23 14.315-.179.45-.272.947-.507 1.369-.431.76-.694 1.378-1.66 1.462-.693.057-1.405-.197-2.052-.365-1.35-.357-2.7-.713-4.031-1.135-1.079-.346-2.513-.806-3.694-1.19l-.075-.019c-1.125-.337-2.353-.6-2.447-2.006-.038-.544.31-1.125.469-1.622a507 507 0 0 1 6.159-17.203c.131-.347.281-.694.431-1.031.085-.188.169-.404.3-.582.028-.047.047-.093.094-.131.656-.6 1.894-.3 2.625-.122 1.125.272 2.213.647 3.328.89 1.303.282 2.597.629 3.881.976l1.922.534c.338.094.656.188.985.29.187.066.412.076.572.198l.224.262c.038.075.057.16.075.244.076.366-.056.816-.15 1.172"/></svg>
